X: 439
T: Buck Mountain
B: jims roots
M:C|
R: reel
Q: 1/4=100
K:D
V:1 
dB| "D"[FA][F-A-][F2A2] [F2A2]dc| "G"[GB][G-B-][G2B2] [G3B3]e-| "A"efed cBAc| "D"dcde fedB|
"D"[FA][F-A-][F2A2] [F2A2]dc| "G"[GB][G-B-][G2B2] [G3B3]e-| "A"efed cABc|1 "D"d6 :|2 "D"d8|]
|:"D"fafe dBA2| f3a f3f-| fafe dBA2| f3a f3g-| "G"gagf edB2|
g3a g2fg|1 "A"a4 a2b2| a2g2 f2e2:|2 "A"abag fdec| "D"d6|]
% abcbook-tune_id 6298c2459d65489dec9e75d6


% abcbook-boost 0
% abcbook-tablature 
% abcbook-transpose 
% abcbook-lastupdated 1654178373531
% abcbook-soundfonts 
% abcbook-repeats 1


